X:4797
T:Old John's Jig
T:Port Shean Tseain
O:england
R:jig
M:6/8
L:1/8
K:ADor
cAA cAA|GEE GAB|cAA cAG|Add ded|
cAA cAA|GEE GAB|cde ged|cAA A3:|
efg eaa|ged cAA|efg eaa|bag a2g|
efg eaa|ged cAA|cde ged|cAA A3:|


